X: 1
T: the Merry Making
T: A' Chridhealachd
C: Simon Fraser Colln, from Elke Baker
Z: Terry Traub
K: F
M: 4/4
L: 1/8
B |\
"F"A/B/c cB Acfc | A/B/c cd "Eb"_eGGB | "F"A/B/c cB Acfc | "C"e/f/g ge "F"f2 f :|\
b |\
"F"affg agfc | "C"dgfg eccb |
"F"affg agfc | "C"dbge "F"f2 fb |\
"F"affg agfc | "C"egfg eccf/g/ | "F"afge fdcB | "C"Afge "F"f2 f |]
|: c |\
"F"A/B/c cf "Bb"dBBd | "F"A/B/c ce fcac | A/B/c cf "Bb"dBBd | "C"cbge "F"f2 f :|\
a |\
"C"bggb "F"affa | "C"gece cega |
"Bb"bgbg "F"afaf | "C"ecge "F"f2 fa |\
"Bb"bggb "F"affa | "C"gece "F"fdcB | "F"Af"Bb"Bf "F"cf"Bb"df | "C"e/f/g ge "F"f2 f |]
